X: 10289
T: Doherty's
R: reel
M: 4/4
K: Edorian
ABBe BGEF|G/F/E BE =cEB2|Beed BcdB|A2GA FAGF|
~B3e BGEF|FEBE =cEBE|Beed BcdB|ABGA FAGF|
Be^de Beed|Beef gefd|Be^de Bdeg|fdcd edcd|
Be~e2 Be~e2|BeeB e3f|gb^ab f=a~a2|(3efg fe dBAF|

